X: 32513
T: Planxty Burke
R: waltz
M: 3/4
K: Gdorian
M:6/8
B|G(G/A/B/c/) d2 c|Bcd cAF|FGF cAF|FGF fAF|
.G(G/A/B/c/) dBG|GAG dBG|f2 f fga|~f3 d2||
(f/g/)|agf gf=e|f=ed cde|f=ed gfe|f=ed cA^F|
.G(G/A/B/c/) dBG|GAG dBG|f2 f fga|~f3 d2||
e|fg=e fge|f=ed cA^F|g2 g gag|fd=e f2 e|
(^f/g/a).f gd=e|f=ed cA^F|g2 d (=e/f/g)d|B3 G2||

